svgs/sharp-regular/keynote.svg

<svg xmlns="http://www.w3.org/2000/svg" viewBox="0 0 512 512"><!--! Font Awesome Pro 6.6.0 by @fontawesome - https://fontawesome.com License - https://fontawesome.com/license (Commercial License) Copyright 2024 Fonticons, Inc. --><path d="M304 0L192 0l0 24-8 0c-48.6 0-88 39.4-88 88l0 48-32 0L0 256l0 48 0 48 48 0 416 0 48 0 0-48 0-48-64-96-304 0 0-48c0-22.1 17.9-40 40-40l8 0 0 24 112 0c26.5 0 48-21.5 48-48s-21.5-48-48-48zM89.7 208l332.6 0L464 270.5l0 33.5L48 304l0-33.5L89.7 208zM128 464l0 48 24 0 104 0 104 0 24 0 0-48-24 0-80 0 0-80-48 0 0 80-80 0-24 0z"/></svg>

<svg xmlns="http://www.w3.org/2000/svg" viewBox="0 0 512 512"><!--! Font Awesome Pro 6.4.0 by @fontawesome - https://fontawesome.com License - https://fontawesome.com/license (Commercial License) Copyright 2023 Fonticons, Inc. --><path d="M304 0H192V24h-8c-48.6 0-88 39.4-88 88v48H64L0 256v48 48H48 464h48V304 256l-64-96H144V112c0-22.1 17.9-40 40-40h8V96H304c26.5 0 48-21.5 48-48s-21.5-48-48-48zM89.7 208H422.3L464 270.5V304H48V270.5L89.7 208zM128 464v48h24H256 360h24V464H360 280V384H232v80H152 128z"/></svg>
